X:1
T:He’s Coming Back Again
T:He’s Coming Back Again
T:Mrs. H. S. Lehman
T:Mrs. H. S. Lehman, 1922
T:Public Domain Courtesy of the Cyber Hymnal™
T:Public Domain Courtesy of the Cyber Hymnal™
C:Mrs. H. S. Lehman
Z:Public Domain
Z:Courtesy of the Cyber Hymnal™
%%score ( 1 2 ) ( 3 4 )
L:1/8
Q:1/4=110
M:4/4
K:C
V:1 treble 
V:2 treble 
V:3 bass 
V:4 bass 
V:1
 [Ec]>[EB] [Ed]>[Ec] [EB]>[Ed] [Ec]>[EA] | [Fc]2 [FB]2 [FB]4 | %2
w: 1.~There’s a bless- èd hope that thrills my|heart to know|
w: 2.~He Who on the cross for me was|cru- ci- fied,|
w: 3.~When He comes a- gain ’twill be as|King of kings,|
 [FB]>[FA] [Fc]>[FB] [FA]>[Fc] [FB]>[FG] | [EA]2 [EG]2 G4 | %4
w: That the Christ who came to earth so|long a- go,|
w: He Who for my sin and shame in|an- guish died,|
w: Per- fect peace and joy to all the|earth He’ll bring,|
 [^CA]>[CA] [C_B]>[CA] [CG]>[CE] [CF]>[CE] | D2 [DA]2 [DA]4 | %6
w: Bear- ing all our sins be- cause He|loved us so,|
w: He Whose re- sur- rect- ion ful- ly|jus- ti- fied,|
w: Then through- out e- ter- ni- ty, His|praise we’ll sing,|
 [C^F]>[CF] [CE]>[CD] [CF]>[CF] [CE]>[CD] | G8 ||"^Refrain" c2 G2- [EG]>[EA] [Ec]>[EA] | %9
w: Prom- ised He’d come back a- gain some|day.|Com- ing, oh, yes, He’s com-|
w: Prom- ised He’d come back a- gain some|day.||
w: When, in glo- ry, He re- turns some|day.||
 c2 B2- B7/2 [FA]/ | [FG]>[FA] [FG]>[B,D] [FG]>[FA] [FG]>[B,D] | G8 | c2 G2- [EG]>[EA] [FB]>[Gc] | %13
w: * ing, * The|ver- y same as when He went a-|way,|Com- ing, my Lord is com-|
w: ||||
w: ||||
 d2 A2- [_EA]>[Ec] [EB]>[EA] | [EG]>[CE] [EG]>[Ec] [Ge]>[Ge] [Fd]>[Fd] | c8 |] %16
w: * ing, Oh praise His bless-|* èd name, He’s com- ing back some|day.|
w: |||
w: |||
V:2
 x8 | x8 | x8 | x4 (F2 D2) | x8 | D2 x6 | x8 | (B,2 C2 D2 F2) || (E>E) E3/2 E/ x4 | %9
 (F>F) (F>F F2 F3/2) x/ | x8 | (E2 E2 F2 F2) | (E>E) E3/2 E/ x4 | (F>F) F3/2 F/ x4 | x8 | %15
 (E2 F2 E4) |] %16
V:3
 [C,G,]>[C,G,] [C,G,]>[C,G,] [C,G,]>[C,G,] [C,G,]>[C,C] | [G,D]2 [G,D]2 [G,D]4 | %2
w: ~ ~ ~ ~ ~ ~ ~ ~|~ ~ ~|
 [G,D]>[G,D] [G,A,]>[G,D] [G,C]>[G,A,] [G,D]>[G,B,] | [C,C]2 [^C,_B,]2 [D,=B,]4 | %4
w: ~ ~ ~ ~ ~ ~ ~ ~|~ ~ ~|
 [A,,A,]>[A,,A,] [A,,G,]>[A,,A,] [A,,_B,]>[A,,A,] [A,,A,]>[A,,G,] | [D,F,]2 [D,F,]2 [D,F,]4 | %6
w: ~ ~ ~ ~ ~ ~ ~ ~|~ ~ ~|
 [D,A,]>[D,A,] [D,G,]>[D,^F,] [D,A,]>[D,A,] [D,G,]>[D,F,] | (G,2 A,2 B,2 [G,B,]2) || %8
w: ~ ~ ~ ~ ~ ~ ~ ~|~ * * *|
 [C,G,]>[C,C] [C,C]>[C,C] [C,C]>[C,C] [C,G,]>[C,C] | [G,D]>[G,D] [G,D]>[G,D] [G,D]2 [G,D]>[G,C] | %10
w: Com- ing back a- gain, Oh, yes, He’s|com- ing back a- gain just The|
 [G,B,]>[G,C] [G,B,]>[F,G,] [G,B,]>[G,C] [G,B,]>G, | [C,C]2 [^C,_B,]2 [D,=B,]2 [G,B,]2 | %12
w: ver- y same as when He went a-|way, I know He’s,|
 [C,G,]>[C,C] [C,C]>[C,C] [C,C]>[C,C] [D,G,]>[E,_B,] | %13
w: Com- ing, and I’m sure My Lord is|
 [F,A,]>[F,C] [F,C]>[F,C] [F,C]>[F,A,] [F,B,]>[F,C] | %14
w: com- ing ver- y soon, Oh, praise His|
 [G,C]>G, [E,C]>[C,G,] [G,C]>[G,C] [G,B,]>[G,B,] | [C,G,]2 (_A,A,) [C,G,]4 |] %16
w: bless- èd Name, He’s com- ing back some|hap- py * day.|
V:4
 x8 | x8 | x8 | x8 | x8 | x8 | x8 | G,,6 x2 || x8 | x8 | x15/2 G,/ | x8 | x8 | x8 | x3/2 G,/ x6 | %15
 x2 C,2 x4 |] %16

